assets/works3.svg

<svg viewBox="0 0 53 70" fill="none" xmlns="http://www.w3.org/2000/svg">
  <path d="M33.4585 70H3.53626C1.63212 70 0 68.4585 0 66.4637V3.53627C0 1.63212 1.54145 0 3.53626 0H33.4585c1.9042 0 3.5363 1.54145 3.5363 3.53627V15.2332h-2.8109V3.53627c0-.45337-.3627-.72539-.7254-.72539H3.53626c-.45336 0-.72537.3627-.72537.72539V66.5544c0 .4534.36268.7254.72537.7254H33.4585c.4534 0 .7254-.3627.7254-.7254V51.1399h2.8109v15.4145c0 1.9041-1.5414 3.4456-3.5363 3.4456Z" fill="#F86A2E"/>
  <path d="M31.9171 56.9429H5.16841v2.8109H31.9171v-2.8109ZM31.9171 9.70215H5.16841V12.513H31.9171V9.70215Z" fill="#F86A2E"/>
  <path d="M24.2099 4.71484H12.785v2.81088h11.4249V4.71484ZM19.9482 61.6582h-2.8109v2.8109h2.8109v-2.8109Z" fill="#fff"/>
  <path d="M19.5855 34.5469h-6.8912v2.8109h6.8912v-2.8109ZM24.7539 40.5312H12.6943v2.8109h12.0596v-2.8109ZM29.0155 34.5469h-6.1657v2.8109h6.1657v-2.8109ZM38.4456 34.5469h-6.1658v2.8109h6.1658v-2.8109ZM47.9663 34.5469h-6.1658v2.8109h6.1658v-2.8109Z" fill="#F86A2E"/>
  <path d="M49.4171 17.6812H11.5156c-1.99486 0-3.53634 1.6321-3.53634 3.5362v24.1192c0 1.9948 1.63215 3.5363 3.53634 3.5363h37.9015c1.9948 0 3.5363-1.6322 3.5363-3.5363V21.2174c0-1.9041-1.5415-3.5362-3.5363-3.5362ZM11.5156 20.492h37.9015c.4534 0 .8161.3627.8161.8161v1.9041H10.7901v-1.9041c0-.4534.2721-.8161.7255-.8161Zm38.7176 5.4404v3.2643H10.7901v-3.2643h39.4431Zm-.8161 20.2203H11.5156c-.4534 0-.8161-.3627-.8161-.8161v-13.329h39.443v13.4197c.0906.3627-.272.7254-.7254.7254Z" fill="#fff"/>
</svg>

<svg width="53" height="70" viewBox="0 0 53 70" fill="none" xmlns="http://www.w3.org/2000/svg">
<path d="M33.4585 70H3.53626C1.63212 70 0 68.4585 0 66.4637V3.53627C0 1.63212 1.54145 0 3.53626 0H33.4585C35.3627 0 36.9948 1.54145 36.9948 3.53627V15.2332H34.1839V3.53627C34.1839 3.0829 33.8212 2.81088 33.4585 2.81088H3.53626C3.0829 2.81088 2.81089 3.17358 2.81089 3.53627V66.5544C2.81089 67.0078 3.17357 67.2798 3.53626 67.2798H33.4585C33.9119 67.2798 34.1839 66.9171 34.1839 66.5544V51.1399H36.9948V66.5544C36.9948 68.4585 35.4534 70 33.4585 70Z" fill="#F86A2E"/>
<path d="M31.9171 56.9429H5.16841V59.7538H31.9171V56.9429Z" fill="#F86A2E"/>
<path d="M31.9171 9.70215H5.16841V12.513H31.9171V9.70215Z" fill="#F86A2E"/>
<path d="M24.2099 4.71484H12.785V7.52572H24.2099V4.71484Z" fill="white"/>
<path d="M19.9482 61.6582H17.1373V64.4691H19.9482V61.6582Z" fill="white"/>
<path d="M19.5855 34.5469H12.6943V37.3578H19.5855V34.5469Z" fill="#F86A2E"/>
<path d="M24.7539 40.5312H12.6943V43.3421H24.7539V40.5312Z" fill="#F86A2E"/>
<path d="M29.0155 34.5469H22.8498V37.3578H29.0155V34.5469Z" fill="#F86A2E"/>
<path d="M38.4456 34.5469H32.2798V37.3578H38.4456V34.5469Z" fill="#F86A2E"/>
<path d="M47.9663 34.5469H41.8005V37.3578H47.9663V34.5469Z" fill="#F86A2E"/>
<path d="M49.4171 17.6812H11.5156C9.52074 17.6812 7.97926 19.3133 7.97926 21.2174V45.3366C7.97926 47.3314 9.61141 48.8729 11.5156 48.8729H49.4171C51.4119 48.8729 52.9534 47.2407 52.9534 45.3366V21.2174C52.9534 19.3133 51.4119 17.6812 49.4171 17.6812ZM11.5156 20.492H49.4171C49.8705 20.492 50.2332 20.8547 50.2332 21.3081V23.2122H10.7901V21.3081C10.7901 20.8547 11.0622 20.492 11.5156 20.492ZM50.2332 25.9324V29.1967H10.7901V25.9324H50.2332ZM49.4171 46.1527H11.5156C11.0622 46.1527 10.6995 45.79 10.6995 45.3366V32.0076H50.1425V45.4273C50.2331 45.79 49.8705 46.1527 49.4171 46.1527Z" fill="white"/>
</svg>
